X:1
T:[ID 4-6r]
T:[ID 4-6r]
T:Bezeichnung standardisiert: Walzer Waltzer
T:Urheber unbekannt Datum in der hier transkribierten schriftlichen Quelle: 1767
C:Urheber unbekannt
C:Datum in der hier transkribierten schriftlichen Quelle: 1767
L:1/8
M:3/4
K:D
V:1 treble 
V:1
 A2 | d4 d2 | f4 d2 | (c2 B2) B2 | B4 B2 | A4 A2 | ABcdec | d4 f2 | d4 :: f2 | e4 e2 | f4 e2 | %12
 e4 c2 | A4 c2 | B2 d2 f2 | A4 ^G2 | A2 A2 A2 | A2 B2 c2 | d4 d2 | f4 d2 | c2 B2 B2 | B4 B2 | %22
 A4 A2 | ABcdec | d4 f2 | d4 :: d2 | c2 e2 A2 | d2 f2 A2 | e2 g2 e2 | d2 f2 a2 | c2 e2 A2 | %32
 d2 f2 A2 | e2 g2 ec | d4 :| %35

